X:48
T:John Anderson, My Jo
C:arr. Carlo Minasi
M:C
L:1/4
B:Chappell's One Hundred Scotch Melodies
B:Arranged for the Concertina by Carlo Minasi
Q:"Andante  "1/4=140
Z:Peter Dunk 2012
K:Bb
!p!G|[DB,]GG[AFD]|[B2G2D2](B [c/E/]B/)|\
[AF] [GDB,][FCA,][=EB,]|[F3A,3]G|
[DB,]GG[AFD]|[B2G2D2]B3/ c/|[d3/B3/][c/F/][BD][cF]|\
[d3B3][fA]|[d3/B3/][c/F/][BD][dB]|[f2c2A2][eBG][dBF]|
[c3/F3/E3/][B/F/D/][AFC][BFD]|[c2A2F2][BD][cF]|\
[dB][BD][c^FA,][AFD]|[BG][G^C]H[d^FD]G|\
[DB,][GE][GEA,][^FDC]| [G3D3B,3G,3]||

